apps/www/public/images/logos/frameworks/svelte.svg

<svg width="62" height="61" viewBox="0 0 62 61" fill="none" xmlns="http://www.w3.org/2000/svg">
<path fill-rule="evenodd" clip-rule="evenodd" d="M28.8421 13.5737C33.6246 10.5267 40.239 11.9474 43.588 16.7408H43.5882C45.1937 18.9881 45.826 21.7874 45.3423 24.5066C45.1104 25.792 44.6203 27.017 43.9015 28.1076C44.9502 30.1077 45.3021 32.4004 44.9015 34.6229C44.4229 37.291 42.8426 39.634 40.5482 41.0772L32.1489 46.4304C27.3671 49.4774 20.7527 48.0572 17.4029 43.2634C15.7977 41.016 15.1654 38.2167 15.6488 35.4975C15.8809 34.2121 16.3713 32.987 17.0902 31.8964C16.041 29.8965 15.6888 27.6038 16.0895 25.3813C16.5683 22.7133 18.1485 20.3704 20.4428 18.927L28.8421 13.5737ZM20.8577 41.0643C22.4527 43.3635 25.3126 44.4236 28.0207 43.7194H28.0206C28.6247 43.558 29.2004 43.305 29.7278 42.9693L38.1291 37.6151C39.5092 36.7467 40.4598 35.3374 40.7479 33.7325C41.0388 32.0968 40.6583 30.4128 39.6925 29.061C38.0976 26.7618 35.2377 25.7017 32.5296 26.4059C31.926 26.5672 31.3506 26.8201 30.8237 27.1557L27.618 29.1987C27.4585 29.3002 27.2845 29.3766 27.1019 29.4255C26.286 29.6371 25.4247 29.3173 24.9444 28.6246C24.6537 28.2169 24.5393 27.7094 24.627 27.2164C24.7138 26.7331 25.0001 26.3087 25.4157 26.0471L33.8177 20.6927C33.9771 20.5912 34.1512 20.5147 34.3338 20.4659C35.1494 20.2542 36.0104 20.5738 36.4904 21.2664C36.7471 21.6298 36.8671 22.0722 36.8293 22.5155L36.8005 22.8272L37.1128 22.922C38.294 23.2783 39.4056 23.8339 40.3996 24.5648L40.8298 24.8804L40.988 24.398C41.0728 24.1413 41.1399 23.8792 41.1888 23.6134C41.4796 21.9776 41.0992 20.2937 40.1334 18.9419C38.5385 16.6427 35.6786 15.5826 32.9705 16.2868C32.3664 16.4481 31.7907 16.7011 31.2633 17.0369L22.862 22.3915C21.4818 23.2594 20.5311 24.6687 20.2432 26.2735C19.9523 27.9092 20.3328 29.5932 21.2987 30.945C22.8935 33.2442 25.7534 34.3043 28.4616 33.6001C29.0651 33.4388 29.6405 33.1861 30.1677 32.8509L33.3738 30.8071C33.533 30.7057 33.7068 30.6293 33.8892 30.5804C34.7051 30.3689 35.5664 30.6886 36.0467 31.3814C36.3372 31.7891 36.4518 32.2964 36.3648 32.7894C36.2775 33.2728 35.991 33.6973 35.5754 33.959L27.1734 39.3132C27.014 39.4147 26.8399 39.4912 26.6573 39.54C25.8417 39.7517 24.9807 39.4321 24.5007 38.7396C24.2437 38.3763 24.1237 37.9337 24.1618 37.4903L24.1906 37.1787L23.8783 37.084C22.6973 36.7276 21.5858 36.1723 20.5917 35.4419L20.1613 35.1257L20.0031 35.6082C19.9181 35.8648 19.851 36.1269 19.8023 36.3928C19.5115 38.0285 19.8919 39.7125 20.8577 41.0643Z" fill="#7E7E7E"/>
</svg>

<svg xmlns="http://www.w3.org/2000/svg" width="62" height="61" fill="none" viewBox="0 0 62 61"><path fill="#7e7e7e" fill-rule="evenodd" d="M28.842 13.574c4.783-3.047 11.397-1.627 14.746 3.167a10.27 10.27 0 0 1 1.754 7.766 9.7 9.7 0 0 1-1.44 3.6c1.048 2 1.4 4.293 1 6.516a9.63 9.63 0 0 1-4.354 6.454l-8.4 5.353c-4.78 3.047-11.395 1.627-14.745-3.167a10.27 10.27 0 0 1-1.754-7.765 9.7 9.7 0 0 1 1.441-3.602c-1.049-2-1.401-4.292-1-6.515a9.64 9.64 0 0 1 4.353-6.454zm-7.984 27.49a6.67 6.67 0 0 0 7.163 2.655 6.1 6.1 0 0 0 1.707-.75l8.401-5.354a5.8 5.8 0 0 0 2.619-3.883 6.18 6.18 0 0 0-1.055-4.671 6.67 6.67 0 0 0-7.163-2.655 6.1 6.1 0 0 0-1.706.75l-3.206 2.043q-.24.153-.516.226a2.01 2.01 0 0 1-2.158-.8 1.86 1.86 0 0 1-.317-1.409c.087-.483.373-.907.789-1.169l8.402-5.354a1.9 1.9 0 0 1 .516-.227 2.01 2.01 0 0 1 2.156.8c.257.364.377.806.34 1.25l-.03.311.313.095c1.181.356 2.293.912 3.287 1.643l.43.315.158-.482a6 6 0 0 0 .2-.785 6.18 6.18 0 0 0-1.055-4.671 6.67 6.67 0 0 0-7.163-2.655 6.1 6.1 0 0 0-1.707.75l-8.401 5.355a5.8 5.8 0 0 0-2.619 3.881 6.18 6.18 0 0 0 1.056 4.672 6.67 6.67 0 0 0 7.163 2.655 6.1 6.1 0 0 0 1.706-.75l3.206-2.043q.24-.152.515-.227a2.01 2.01 0 0 1 2.158.801c.29.408.405.915.318 1.408a1.75 1.75 0 0 1-.79 1.17l-8.402 5.354a1.9 1.9 0 0 1-.516.227 2.01 2.01 0 0 1-2.156-.8 1.88 1.88 0 0 1-.34-1.25l.03-.311-.313-.095a10.8 10.8 0 0 1-3.286-1.642l-.43-.316-.159.482a6 6 0 0 0-.2.785 6.18 6.18 0 0 0 1.055 4.671" clip-rule="evenodd"/></svg>
